Systematic/src/svg/CHIP-8-content.svg

<svg xmlns="http://www.w3.org/2000/svg" xml:space="preserve" width="330.666" height="213.333"><defs><clipPath id="a" clipPathUnits="userSpaceOnUse"><path d="M0 256h256V0H0Z"/></clipPath><clipPath id="b" clipPathUnits="userSpaceOnUse"><path d="M4 208h248V48H4Z"/></clipPath></defs><g clip-path="url(#a)" transform="matrix(1.33333 0 0 -1.33333 -5.334 277.333)"><g clip-path="url(#b)" style="opacity:.5"><path d="M0 0h-214.814c-9.15 0-16.593-7.389-16.593-16.471v-127.058c0-9.082 7.443-16.471 16.593-16.471H0c9.149 0 16.593 7.389 16.593 16.471v127.058C16.593-7.389 9.149 0 0 0" style="fill:#fff;fill-opacity:1;fill-rule:nonzero;stroke:none" transform="translate(235.407 208)"/></g><path d="M0 0c-7.729 0-14 6.268-14 14s6.271 14 14 14c7.728 0 14-6.267 14-14S7.728 0 0 0m-92 0c-7.728 0-14 6.268-14 14s6.272 14 14 14 14-6.268 14-14-6.272-14-14-14M61.407 72h-214.814c-4.743 0-8.593-3.795-8.593-8.471V-63.529c0-4.676 3.85-8.471 8.593-8.471H61.407C66.15-72 70-68.205 70-63.529V63.529C70 68.205 66.15 72 61.407 72" style="fill:#333;fill-opacity:1;fill-rule:nonzero;stroke:none" transform="translate(174 128)"/><path d="M0 0c-7.728 0-14 6.267-14 14s6.272 14 14 14c7.729 0 14-6.267 14-14S7.729 0 0 0m-92 0c-7.728 0-14 6.268-14 14s6.272 14 14 14 14-6.268 14-14-6.272-14-14-14M49.333 60h-190.666c-4.784 0-8.667-3.942-8.667-8.8v-70.4c0-4.858 3.883-8.8 8.667-8.8H49.333C54.117-28 58-24.058 58-19.2v70.4c0 4.858-3.883 8.8-8.667 8.8" style="fill:#d9d9d9;fill-opacity:1;fill-rule:nonzero;stroke:none" transform="translate(174 128)"/><path d="M0 0s0 4-4.234 4h-135.099c-4.222 0-4.222-4-4.222-4l-4.222-20h152z" style="fill:#404040;fill-opacity:1;fill-rule:nonzero;stroke:none" transform="translate(199.777 76)"/><path d="M0 0c-2.212 0-4 1.788-4 4s1.788 4 4 4 4-1.788 4-4-1.788-4-4-4" style="fill:#0d0d0d;fill-opacity:1;fill-rule:nonzero;stroke:none" transform="translate(72 60)"/><path d="M0 0c-2.212 0-4 1.788-4 4s1.788 4 4 4 4-1.788 4-4-1.788-4-4-4" style="fill:#0d0d0d;fill-opacity:1;fill-rule:nonzero;stroke:none" transform="translate(92 64)"/><path d="M0 0c-2.212 0-4 1.788-4 4s1.788 4 4 4 4-1.788 4-4-1.788-4-4-4" style="fill:#0d0d0d;fill-opacity:1;fill-rule:nonzero;stroke:none" transform="translate(128 68)"/><path d="M0 0c-2.212 0-4 1.788-4 4s1.788 4 4 4 4-1.788 4-4-1.788-4-4-4" style="fill:#0d0d0d;fill-opacity:1;fill-rule:nonzero;stroke:none" transform="translate(164 64)"/><path d="M0 0c-2.212 0-4 1.788-4 4s1.788 4 4 4 4-1.788 4-4-1.788-4-4-4" style="fill:#0d0d0d;fill-opacity:1;fill-rule:nonzero;stroke:none" transform="translate(184 60)"/><path d="M0 0a2 2 0 1 0-.068 4A2 2 0 0 0 0 0" style="fill:#191919;fill-opacity:1;fill-rule:nonzero;stroke:none" transform="translate(18.035 60)"/><path d="M0 0a2 2 0 1 0 .001 4.001A2 2 0 0 0 0 0" style="fill:#191919;fill-opacity:1;fill-rule:nonzero;stroke:none" transform="translate(18 192)"/><path d="M0 0a2 2 0 1 0 .001 4.001A2 2 0 0 0 0 0" style="fill:#191919;fill-opacity:1;fill-rule:nonzero;stroke:none" transform="translate(238 60)"/><path d="M0 0a2 2 0 1 0 .001 4.001A2 2 0 0 0 0 0" style="fill:#191919;fill-opacity:1;fill-rule:nonzero;stroke:none" transform="translate(238 192)"/><path d="M0 0c-7.728 0-14-6.267-14-14s6.272-14 14-14 14 6.268 14 14S7.728 0 0 0m0-4c5.514 0 10-4.486 10-10S5.514-24 0-24s-10 4.486-10 10S-5.514-4 0-4" style="fill:#0d0d0d;fill-opacity:1;fill-rule:nonzero;stroke:none" transform="translate(82 156)"/><path d="M0 0c-7.729 0-14-6.267-14-14s6.271-14 14-14c7.728 0 14 6.268 14 14S7.728 0 0 0m0-4c5.514 0 10-4.486 10-10S5.514-24 0-24s-10 4.486-10 10S-5.514-4 0-4" style="fill:#0d0d0d;fill-opacity:1;fill-rule:nonzero;stroke:none" transform="translate(174 156)"/><path d="M0 0c0-2.212-2.086-4-4.667-4h-46.666C-53.914-4-56-2.212-56 0v16c0 2.212 2.086 4 4.667 4h46.666C-2.086 20 0 18.212 0 16Z" style="fill:gray;fill-opacity:1;fill-rule:nonzero;stroke:none" transform="translate(156 132)"/><path d="M0 0v-16c0-2.212 2.486-4 5.562-4h2.736C10.65-16.346 12-12.291 12-8S10.65.346 8.298 4H5.562C2.486 4 0 2.212 0 0" style="fill:#0d0d0d;fill-opacity:1;fill-rule:nonzero;stroke:none" transform="translate(100 148)"/></g></svg>

<?xml version="1.0" encoding="UTF-8" standalone="no"?>
<svg
   xmlns:dc="http://purl.org/dc/elements/1.1/"
   xmlns:cc="http://creativecommons.org/ns#"
   xmlns:rdf="http://www.w3.org/1999/02/22-rdf-syntax-ns#"
   xmlns:svg="http://www.w3.org/2000/svg"
   xmlns="http://www.w3.org/2000/svg"
   viewBox="0 0 330.66638 213.33333"
   height="213.33333"
   width="330.66638"
   xml:space="preserve"
   id="svg2"
   version="1.1"><metadata
     id="metadata8"><rdf:RDF><cc:Work
         rdf:about=""><dc:format>image/svg+xml</dc:format><dc:type
           rdf:resource="http://purl.org/dc/dcmitype/StillImage" /></cc:Work></rdf:RDF></metadata><defs
     id="defs6"><clipPath
       id="clipPath18"
       clipPathUnits="userSpaceOnUse"><path
         id="path16"
         d="M 0,256 H 256 V 0 H 0 Z" /></clipPath><clipPath
       id="clipPath26"
       clipPathUnits="userSpaceOnUse"><path
         id="path24"
         d="M 4,208 H 252 V 48 H 4 Z" /></clipPath></defs><g
     transform="matrix(1.3333333,0,0,-1.3333333,-5.3335999,277.33333)"
     id="g10"><g
       id="g12"><g
         clip-path="url(#clipPath18)"
         id="g14"><g
           id="g20"><g
             id="g22" /><g
             id="g34"><g
               style="opacity:0.5"
               id="g32"
               clip-path="url(#clipPath26)"><g
                 id="g30"
                 transform="translate(235.4072,208)"><path
                   id="path28"
                   style="fill:#ffffff;fill-opacity:1;fill-rule:nonzero;stroke:none"
                   d="m 0,0 h -214.814 c -9.15,0 -16.593,-7.389 -16.593,-16.471 v -127.058 c 0,-9.082 7.443,-16.471 16.593,-16.471 h 25.777 163.26 H 0 c 9.149,0 16.593,7.389 16.593,16.471 V -16.471 C 16.593,-7.389 9.149,0 0,0" /></g></g></g></g><g
           transform="translate(174,128)"
           id="g36"><path
             id="path38"
             style="fill:#333333;fill-opacity:1;fill-rule:nonzero;stroke:none"
             d="m 0,0 c -7.729,0 -14,6.268 -14,14 0,7.733 6.271,14 14,14 C 7.728,28 14,21.733 14,14 14,6.268 7.728,0 0,0 m -92,0 c -7.728,0 -14,6.268 -14,14 0,7.732 6.272,14 14,14 7.728,0 14,-6.268 14,-14 C -78,6.268 -84.272,0 -92,0 M 61.407,72 H -153.407 C -158.15,72 -162,68.205 -162,63.529 V -63.529 c 0,-4.676 3.85,-8.471 8.593,-8.471 H -127.63 35.63 61.407 C 66.15,-72 70,-68.205 70,-63.529 V 63.529 C 70,68.205 66.15,72 61.407,72" /></g><g
           transform="translate(174,128)"
           id="g40"><path
             id="path42"
             style="fill:#d9d9d9;fill-opacity:1;fill-rule:nonzero;stroke:none"
             d="m 0,0 c -7.728,0 -14,6.267 -14,14 0,7.733 6.272,14 14,14 C 7.729,28 14,21.733 14,14 14,6.267 7.729,0 0,0 m -92,0 c -7.728,0 -14,6.268 -14,14 0,7.732 6.272,14 14,14 7.728,0 14,-6.268 14,-14 C -78,6.268 -84.272,0 -92,0 M 49.333,60 H -141.333 C -146.117,60 -150,56.058 -150,51.2 v -70.4 c 0,-4.858 3.883,-8.8 8.667,-8.8 H 49.333 c 4.784,0 8.667,3.942 8.667,8.8 v 70.4 c 0,4.858 -3.883,8.8 -8.667,8.8" /></g><g
           transform="translate(199.7773,76)"
           id="g44"><path
             id="path46"
             style="fill:#404040;fill-opacity:1;fill-rule:nonzero;stroke:none"
             d="m 0,0 c 0,0 0,4 -4.234,4 h -135.099 c -4.222,0 -4.222,-4 -4.222,-4 l -4.222,-20 h 152 z" /></g><g
           transform="translate(72,60)"
           id="g48"><path
             id="path50"
             style="fill:#0d0d0d;fill-opacity:1;fill-rule:nonzero;stroke:none"
             d="M 0,0 C -2.212,0 -4,1.788 -4,4 -4,6.212 -2.212,8 0,8 2.212,8 4,6.212 4,4 4,1.788 2.212,0 0,0" /></g><g
           transform="translate(92,64)"
           id="g52"><path
             id="path54"
             style="fill:#0d0d0d;fill-opacity:1;fill-rule:nonzero;stroke:none"
             d="M 0,0 C -2.212,0 -4,1.788 -4,4 -4,6.212 -2.212,8 0,8 2.212,8 4,6.212 4,4 4,1.788 2.212,0 0,0" /></g><g
           transform="translate(128,68)"
           id="g56"><path
             id="path58"
             style="fill:#0d0d0d;fill-opacity:1;fill-rule:nonzero;stroke:none"
             d="M 0,0 C -2.212,0 -4,1.788 -4,4 -4,6.212 -2.212,8 0,8 2.212,8 4,6.212 4,4 4,1.788 2.212,0 0,0" /></g><g
           transform="translate(164,64)"
           id="g60"><path
             id="path62"
             style="fill:#0d0d0d;fill-opacity:1;fill-rule:nonzero;stroke:none"
             d="M 0,0 C -2.212,0 -4,1.788 -4,4 -4,6.212 -2.212,8 0,8 2.212,8 4,6.212 4,4 4,1.788 2.212,0 0,0" /></g><g
           transform="translate(184,60)"
           id="g64"><path
             id="path66"
             style="fill:#0d0d0d;fill-opacity:1;fill-rule:nonzero;stroke:none"
             d="M 0,0 C -2.212,0 -4,1.788 -4,4 -4,6.212 -2.212,8 0,8 2.212,8 4,6.212 4,4 4,1.788 2.212,0 0,0" /></g><g
           transform="translate(18.0347,60)"
           id="g68"><path
             id="path70"
             style="fill:#191919;fill-opacity:1;fill-rule:nonzero;stroke:none"
             d="M 0,0 C -1.104,-0.019 -2.015,0.861 -2.034,1.965 -2.054,3.069 -1.173,3.98 -0.069,4 1.034,4.019 1.946,3.139 1.965,2.035 1.984,0.931 1.104,0.02 0,0" /></g><g
           transform="translate(18,192)"
           id="g72"><path
             id="path74"
             style="fill:#191919;fill-opacity:1;fill-rule:nonzero;stroke:none"
             d="M 0,0 C -1.104,0 -2,0.896 -2,2 -2,3.104 -1.104,4 0,4 1.104,4 2,3.104 2,2 2,0.896 1.104,0 0,0" /></g><g
           transform="translate(238,60)"
           id="g76"><path
             id="path78"
             style="fill:#191919;fill-opacity:1;fill-rule:nonzero;stroke:none"
             d="M 0,0 C -1.104,0 -2,0.896 -2,2 -2,3.104 -1.104,4 0,4 1.104,4 2,3.104 2,2 2,0.896 1.104,0 0,0" /></g><g
           transform="translate(238,192)"
           id="g80"><path
             id="path82"
             style="fill:#191919;fill-opacity:1;fill-rule:nonzero;stroke:none"
             d="M 0,0 C -1.104,0 -2,0.896 -2,2 -2,3.104 -1.104,4 0,4 1.104,4 2,3.104 2,2 2,0.896 1.104,0 0,0" /></g><g
           transform="translate(82,156)"
           id="g84"><path
             id="path86"
             style="fill:#0d0d0d;fill-opacity:1;fill-rule:nonzero;stroke:none"
             d="m 0,0 c -7.728,0 -14,-6.267 -14,-14 0,-7.732 6.272,-14 14,-14 7.728,0 14,6.268 14,14 C 14,-6.267 7.728,0 0,0 m 0,-4 c 5.514,0 10,-4.486 10,-10 0,-5.514 -4.486,-10 -10,-10 -5.514,0 -10,4.486 -10,10 0,5.514 4.486,10 10,10" /></g><g
           transform="translate(174,156)"
           id="g88"><path
             id="path90"
             style="fill:#0d0d0d;fill-opacity:1;fill-rule:nonzero;stroke:none"
             d="m 0,0 c -7.729,0 -14,-6.267 -14,-14 0,-7.732 6.271,-14 14,-14 7.728,0 14,6.268 14,14 C 14,-6.267 7.728,0 0,0 m 0,-4 c 5.514,0 10,-4.486 10,-10 0,-5.514 -4.486,-10 -10,-10 -5.514,0 -10,4.486 -10,10 0,5.514 4.486,10 10,10" /></g><g
           transform="translate(156,132)"
           id="g92"><path
             id="path94"
             style="fill:#808080;fill-opacity:1;fill-rule:nonzero;stroke:none"
             d="M 0,0 C 0,-2.212 -2.086,-4 -4.667,-4 H -51.333 C -53.914,-4 -56,-2.212 -56,0 v 16 c 0,2.212 2.086,4 4.667,4 H -4.667 C -2.086,20 0,18.212 0,16 Z" /></g><g
           transform="translate(100,148)"
           id="g96"><path
             id="path98"
             style="fill:#0d0d0d;fill-opacity:1;fill-rule:nonzero;stroke:none"
             d="m 0,0 v -16 c 0,-2.212 2.486,-4 5.562,-4 H 8.298 C 10.65,-16.346 12,-12.291 12,-8 12,-3.709 10.65,0.346 8.298,4 H 5.562 C 2.486,4 0,2.212 0,0" /></g></g></g></g></svg>
